Adwaita/symbolic/status/network-vpn-disconnected-symbolic.svg

<?xml version="1.0" encoding="UTF-8"?>
<svg height="16px" viewBox="0 0 16 16" width="16px" xmlns="http://www.w3.org/2000/svg">
    <g fill="#2e3436">
        <path d="m 5 3 c 0 0.550781 0.449219 1 1 1 s 1 -0.449219 1 -1 c 0 -1.351562 2 -1.371094 2 0 v 1.96875 c 0 0.015625 -0.015625 0.03125 -0.03125 0.03125 h -4.9375 c -0.015625 0 -0.03125 0.015625 -0.03125 0.03125 v 5.9375 c 0 0.007812 0.003906 0.015625 0.007812 0.023438 c 0.007813 0.003906 0.015626 0.007812 0.023438 0.007812 h 2.9375 c 0.007812 0 0.015625 0.003906 0.023438 0.007812 c 0.003906 0.007813 0.007812 0.015626 0.007812 0.023438 v 1.441406 c 0 0.007813 0.003906 0.015625 0.007812 0.019532 c 0.007813 0.007812 0.015626 0.011718 0.023438 0.011718 h 1.9375 c 0.015625 0 0.03125 -0.015625 0.03125 -0.03125 v -1.441406 c 0 -0.015625 0.015625 -0.03125 0.03125 -0.03125 h 2.9375 c 0.015625 0 0.03125 -0.015625 0.03125 -0.03125 v -5.9375 c 0 -0.015625 -0.015625 -0.03125 -0.03125 -0.03125 h -0.9375 c -0.015625 0 -0.03125 -0.015625 -0.03125 -0.03125 v -1.96875 c 0 -4 -6 -4 -6 0 z m 0 0"/>
        <path d="m 7.996094 16.011719 c -0.703125 0 -1.351563 -0.371094 -1.714844 -0.972657 h -3.285156 c -0.550782 0 -1 -0.449218 -1 -1 c 0 -0.550781 0.449218 -1 1 -1 h 3.25 c 0.351562 -0.640624 1.019531 -1.035156 1.75 -1.039062 c 0.730468 0.003906 1.402344 0.398438 1.753906 1.039062 h 3.257812 c 0.554688 0 1 0.449219 1 1 c 0 0.550782 -0.445312 1 -1 1 h -3.292968 c -0.363282 0.601563 -1.015625 0.972657 -1.71875 0.972657 z m 0 -1 c 0.554687 0 1.007812 -0.449219 1.007812 -1.003907 c 0 -0.558593 -0.453125 -1.007812 -1.007812 -1.007812 c -0.554688 0 -1.003906 0.449219 -1.003906 1.007812 c 0 0.554688 0.449218 1.003907 1.003906 1.003907 z m 0 0"/>
    </g>
</svg>

<?xml version="1.0" encoding="UTF-8"?>
<svg xmlns="http://www.w3.org/2000/svg" xmlns:xlink="http://www.w3.org/1999/xlink" width="16px" height="16px" viewBox="0 0 16 16" version="1.1">
<g id="surface111402">
<path style=" stroke:none;fill-rule:nonzero;fill:rgb(18.039216%,20.392157%,21.176471%);fill-opacity:1;" d="M 5 3 C 5 3.550781 5.449219 4 6 4 C 6.550781 4 7 3.550781 7 3 C 7 1.648438 9 1.628906 9 3 L 9 4.96875 C 9 4.984375 8.984375 5 8.96875 5 L 4.03125 5 C 4.015625 5 4 5.015625 4 5.03125 L 4 10.96875 C 4 10.976562 4.003906 10.984375 4.007812 10.992188 C 4.015625 10.996094 4.023438 11 4.03125 11 L 6.96875 11 C 6.976562 11 6.984375 11.003906 6.992188 11.007812 C 6.996094 11.015625 7 11.023438 7 11.03125 L 7 12.472656 C 7 12.480469 7.003906 12.488281 7.007812 12.492188 C 7.015625 12.5 7.023438 12.503906 7.03125 12.503906 L 8.96875 12.503906 C 8.984375 12.503906 9 12.488281 9 12.472656 L 9 11.03125 C 9 11.015625 9.015625 11 9.03125 11 L 11.96875 11 C 11.984375 11 12 10.984375 12 10.96875 L 12 5.03125 C 12 5.015625 11.984375 5 11.96875 5 L 11.03125 5 C 11.015625 5 11 4.984375 11 4.96875 L 11 3 C 11 -1 5 -1 5 3 Z M 5 3 "/>
<path style=" stroke:none;fill-rule:nonzero;fill:rgb(18.039216%,20.392157%,21.176471%);fill-opacity:1;" d="M 7.996094 16.011719 C 7.292969 16.011719 6.644531 15.640625 6.28125 15.039062 L 2.996094 15.039062 C 2.445312 15.039062 1.996094 14.589844 1.996094 14.039062 C 1.996094 13.488281 2.445312 13.039062 2.996094 13.039062 L 6.246094 13.039062 C 6.597656 12.398438 7.265625 12.003906 7.996094 12 C 8.726562 12.003906 9.398438 12.398438 9.75 13.039062 L 13.007812 13.039062 C 13.5625 13.039062 14.007812 13.488281 14.007812 14.039062 C 14.007812 14.589844 13.5625 15.039062 13.007812 15.039062 L 9.714844 15.039062 C 9.351562 15.640625 8.699219 16.011719 7.996094 16.011719 Z M 7.996094 15.011719 C 8.550781 15.011719 9.003906 14.5625 9.003906 14.007812 C 9.003906 13.449219 8.550781 13 7.996094 13 C 7.441406 13 6.992188 13.449219 6.992188 14.007812 C 6.992188 14.5625 7.441406 15.011719 7.996094 15.011719 Z M 7.996094 15.011719 "/>
</g>
</svg>
